!!!COM: Paul Hindemith
!!!OTL: [T647_Hin-w63p1m1-h1m1-5]
**kern	**kern	**dynam	**kern	**dynam
*grp:A	*grp:A	*grp:A	*grp:B	*grp:B
*part2	*part2	*part2	*part1	*part1
*staff3	*staff2	*	*staff1	*
*I"Piano	*I"Piano	*	*I"Oboe	*
*I'Pno.	*I'Pno.	*	*I'Ob.	*
*clefF4	*clefG2	*	*clefG2	*
*k[]	*k[]	*	*k[]	*
*C:	*C:	*	*C:	*
*M2/4	*M2/4	*	*M2/4	*
=1	=1	=1	=1	=1
!	!	!	!LO:TX:a:B:t=Munter ([quarter]  etwa 120)	!
!	!LO:TX:t=P:problem: Cross-Measure Beaming still needs to be implemented.	!	!	!
2ryyyy	8ryy	4ryy	4g	f
.	8ryy	.	.	.
.	8ryy	.	8gL	.
.	8ryy	.	8aJ	.
=2	=2	=2	=2	=2
2ryyyy	8ryy	.	4b-X	.
.	8ryy	.	.	.
.	8ryy	.	8r	.
.	8ryy	.	(16b-LL	.
.	.	.	16ccJJ	.
=3	=3	=3	=3	=3
2ryyyy	8ryy	.	8cc#XL)	.
.	8ryy	.	8a	.
.	8ryy	.	8e	.
.	8ryy	.	8fnJ	.
=4	=4	=4	=4	=4
2ryyyy	8ryy	.	(4ff#X~	.
.	8ryy	4ryy	.	<
.	8ryy	4ryy	4ee~	.
.	8ryy	.	.	.
=5	=5	=5	=5	=5
2ryyyy	8ryy	.	8ee-X)	[
.	8ryy	.	8r	.
.	8ryy	.	4aa-X	.
.	8ryy	.	.	.
=6	=6	=6	=6	=6
2ryyyy	8ryy	.	(16ggLL	.
.	.	.	16ff#X)	.
.	8ryy	.	(16gg	.
.	.	.	16ff#JJ)	.
.	8ryy	.	[4b	.
.	8ryy	.	.	.
=7	=7	=7	=7	=7
2ryyyy	8ryy	.	8b]	.
.	8ryy	.	8r	.
.	8ryy	.	4ee	.
.	8ryy	.	.	.
=8	=8	=8	=8	=8
2ryyyy	8ryy	.	(16ee-XLL	.
.	.	.	16dd)	.
.	8ryy	.	(16ee-	.
.	.	.	16ddJJ)	.
.	8ryy	.	[4g	.
.	8ryy	.	.	.
!!linebreak:original
=9	=9	=9	=9	=9
4ryy	8ryy	.	8gL]	.
.	8ryy	.	(8d#X^	.
8ryy	8ryy	.	8e)	.
8ryy	8ryy	4ryy	8fnJ	.
=10	=10	=10	=10	=10
4ryy	4ryy	.	(8b-X^L	.
.	.	.	8a)	>
8ryy	8ryy	.	8a-X	.
8ryy	8ryy	.	(8dd-X^J	.
=11	=11	=11	=11	=11
8ryy	8ryy	.	8ccL)	.
8ryy	8ryy	.	8bn	.
4ryy	4ryy	4ryy	8ee	.
.	.	.	8gg#XJ	]]
*clefG2	*	*	*	*
=12	=12	=12	=12	=12
*^	*	*	*	*
2ryyyy	8ryy	8ryyyy	4ryy	4aa	mf
.	8ryy	16ryy	.	.	.
.	.	16ryy	.	.	.
.	8ryy	8ryy	.	8ffnL	.
.	8ryy	8ryyyy	.	8eeJ	.
*v	*v	*	*	*	*
!!LO:REH:t=1
=13	=13	=13	=13	=13
*	*^	*	*	*
2ryyyy	8ryy	16ryy	.	4bb	.
.	.	16ryy	.	.	.
.	8ryy	8ryy	4ryy	.	.
.	8ryy	8ryyyy	.	8r	.
.	8ryy	16ryy	.	(16aaLL	<
.	.	16ryy	4ryy	16bbJJ	[[
*	*v	*v	*	*	*
=14	=14	=14	=14	=14
*M3/8	*M3/8	*	*M3/8	*
*	*^	*	*	*
8ryyyy	8ryy	8ryy	4ryy	8cccL)	>
*	*v	*v	*	*	*
8ryy	8ryy	4ryy	8gg	]]
8ryy	8ryy	.	8ff#XJ	.
=15	=15	=15	=15	=15
*M2/4	*M2/4	*	*M2/4	*
*^	*	*	*	*
2ryyyy	8ryy	8ryyyy	.	4aa	.
.	8ryy	16ryy	.	.	.
.	.	16ryy	.	.	.
.	8ryy	8ryy	.	8ffnL	.
.	8ryy	8ryyyy	.	8eeJ	.
*v	*v	*	*	*	*
=16	=16	=16	=16	=16
*	*^	*	*	*
2ryyyy	8ryy	16ryy	4ryy	4bb	<
.	.	16ryy	.	.	.
.	8ryy	8ryy	.	.	.
.	8ryy	8ryyyy	4ryy	8r	.
.	8ryy	16ryy	.	(16aaLL	.
.	.	16ryy	.	16bbJJ	[
*	*v	*v	*	*	*
=17	=17	=17	=17	=17
*M3/8	*M3/8	*	*M3/8	*
*	*^	*	*	*
8ryyyy	8ryy	8ryy	4ryy	8cccL)	>
*	*v	*v	*	*	*
8ryy	8ryy	4ryy	8gg	]
8ryy	8ryy	.	8ff#XJ	.
=	=	=	=	=
*-	*-	*-	*-	*-
!!!system-decoration: s1[({(s2,s3)})]
!!!RDF**kern: > = above
!!!RDF**kern: < = below
!!!EED: Daniel Wright
!!!EEV: 2022/02/18
